X:438
%%etbk:tnset id:132,pos:2,rep:3x,ant:
%%etbk:wsite http://www.thesession.org/tunes/display/1650
%%etbk:pldat 2015-03-06T17:41,2015-01-24T13:38,2015-01-20T17:36,2014-12-10T16:42,2014-09-10T16:49,2014-08-31T14:39,2014-08-26T17:29,2014-06-22T16:50,2014-06-09T16:06,2014-05-28T17:10,2014-05-20T17:27,2014-04-27T15:14,2014-04-12T13:19,2014-04-06T16:16,2014-03-22T16:48,2014-03-21T16:50,2014-03-19T19:14,2014-03-01T18:04,2014-02-26T19:02,2014-02-15T16:45,2014-02-14T16:32,2014-02-11T17:43,2013-11-25T20:00,2013-11-21T18:14,2013-11-16T16:09,2013-10-08T17:06,2013-10-03T19:21,2013-09-16T15:23,2013-09-04T17:59,2013-05-22T16:41
T: Lord Seaforth
Z: Piano Box Version by Martin Fleischmann
H: Created 2013-02-19 /  Last Modified 2013-02-19
M: 4/4
L: 1/8
R: strathspey
K: Gmaj
F| !4!G<!1!DD>E !1!G>A!3!B>!5!d | !4!c>!2!AB<!1!G !2!E3!3!F | !4!G<!1!DD>E !1!G>A!3!B>!5!e | !4!d>!3!BA<B !1!G3:|
g| !3!(3ef!5!g !2!d>!5!g !1!B>!5!g!2!d>!1!B | !4!c>AB<!1!G !2!!1!E3!5!g | !3!(3ef!5!g !2!d>g !1!B>g!2!d>!1!B | !4!c>A!5!d<B !1!G3!5!g |
!3!(3efg d>g B>gd>B | !4!c>AB<!1!G !2!E3!3!F | !4!G<!1!DD>E !1!G>A!3!B>!5!e | !4!d>!3!BA<B !1!G3||


